storage/app/icons/phosphoricons/duotone/suitcase-duotone.svg

<svg xmlns="http://www.w3.org/2000/svg" fill="currentColor" viewBox="0 0 256 256"><path d="M40 64h48v144H40a8 8 0 0 1-8-8V72a8 8 0 0 1 8-8m176 0h-48v144h48a8 8 0 0 0 8-8V72a8 8 0 0 0-8-8" opacity=".2"/><path d="M216 56h-40v-8a24 24 0 0 0-24-24h-48a24 24 0 0 0-24 24v8H40a16 16 0 0 0-16 16v128a16 16 0 0 0 16 16h176a16 16 0 0 0 16-16V72a16 16 0 0 0-16-16M96 48a8 8 0 0 1 8-8h48a8 8 0 0 1 8 8v8H96Zm64 24v128H96V72ZM40 72h40v128H40Zm176 128h-40V72h40z"/></svg>

<svg xmlns="http://www.w3.org/2000/svg" viewBox="0 0 256 256" fill="currentColor"><path d="M40,64H88V208H40a8,8,0,0,1-8-8V72A8,8,0,0,1,40,64Zm176,0H168V208h48a8,8,0,0,0,8-8V72A8,8,0,0,0,216,64Z" opacity="0.2"/><path d="M216,56H176V48a24,24,0,0,0-24-24H104A24,24,0,0,0,80,48v8H40A16,16,0,0,0,24,72V200a16,16,0,0,0,16,16H216a16,16,0,0,0,16-16V72A16,16,0,0,0,216,56ZM96,48a8,8,0,0,1,8-8h48a8,8,0,0,1,8,8v8H96Zm64,24V200H96V72ZM40,72H80V200H40ZM216,200H176V72h40V200Z"/></svg>
